packages/core/src/svgs/taboo.svg

<svg width="24" height="24" viewBox="0 0 24 24" fill="none" xmlns="http://www.w3.org/2000/svg">
<g clip-path="url(#clip0_31_19570)">
<path d="M0 0H24V24H0V0Z" fill="#5B1212"/>
<path d="M11.087 8.17273C11.0099 8.23273 10.8428 8.31416 10.7142 8.34845C10.2256 8.47702 9.23989 8.47702 7.63704 8.33131C6.59561 8.24131 5.70847 8.25416 5.1899 8.37416C4.65361 8.49773 4.18284 8.81718 3.8699 9.26988C3.65561 9.58702 3.58275 9.99845 3.66847 10.3499C3.70464 10.5575 3.81495 10.7449 3.9789 10.8774C4.14286 11.0098 4.34931 11.0782 4.5599 11.0699C4.77418 11.0699 4.91561 11.0313 5.0999 10.9284C5.20704 10.8642 5.45132 10.6327 5.45132 10.5942C5.45132 10.5856 5.4299 10.5813 5.40418 10.5856C5.27132 10.6156 5.09561 10.5042 5.02275 10.3499C4.9799 10.2599 4.97561 10.2213 4.97561 10.0627C4.97561 9.83988 5.00561 9.69845 5.10418 9.49273C5.3399 8.98702 5.85847 8.75559 6.56132 8.82845C6.74132 8.84988 7.31132 8.95702 7.38847 8.99131C7.42275 9.00416 7.41418 9.02988 7.2599 9.36845C7.02349 9.92397 6.75149 10.4637 6.44561 10.9842C5.85418 11.9656 5.31418 12.5442 4.68847 12.8656C4.3799 13.0284 4.23418 13.0627 3.89561 13.0799C3.73926 13.0886 3.58242 13.0786 3.42847 13.0499L3.51418 13.1784C3.88786 13.6842 4.14407 14.2669 4.26418 14.8842C4.27275 14.9399 4.2899 14.9913 4.29418 14.9913C4.32418 15.0127 4.58561 14.9227 4.74418 14.8413C5.21561 14.5927 5.70847 14.0442 6.20132 13.2127C6.6299 12.4756 6.92132 11.867 7.55132 10.3884C7.71315 9.9729 7.90361 9.56907 8.12132 9.17988C8.13418 9.17131 8.23704 9.19702 8.34847 9.23131C8.91418 9.41559 9.18418 9.46702 9.5399 9.47131C9.76275 9.47131 9.8399 9.46273 9.96847 9.42845C10.2942 9.34273 10.5256 9.20988 10.7399 8.96559C10.907 8.78131 11.0228 8.57131 11.0956 8.33988C11.1599 8.13416 11.1599 8.10845 11.087 8.16845V8.17273ZM13.607 8.61416C13.457 8.66988 13.3285 8.76416 13.1913 8.91845C12.9728 9.16702 12.7928 9.51416 12.3085 10.6199C11.9237 11.504 11.5265 12.3827 11.117 13.2556C11.1128 13.2599 11.087 13.2427 11.0656 13.2127C11.0442 13.1827 11.0228 13.1613 11.0185 13.1656L10.9328 13.2856C10.8256 13.4484 10.5813 13.697 10.457 13.7742C10.1828 13.9456 9.9599 13.9027 9.9299 13.6713C9.90418 13.5213 9.92989 13.3156 9.98989 13.1356C10.1399 12.6856 10.7099 11.477 10.9328 11.237L11.0185 11.1427H10.0713C10.0713 11.2199 10.0413 11.3742 9.96418 11.5542L9.89132 11.717L9.8699 11.6142C9.85137 11.4905 9.79083 11.377 9.69847 11.2927C9.5602 11.1864 9.38836 11.1331 9.21418 11.1427C8.35704 11.1427 7.80847 12.3427 7.50847 12.9727C7.27275 13.4784 7.01561 14.9999 7.92847 14.9999C8.57132 14.9999 8.8499 14.2842 9.00418 13.9884C9.04704 13.9156 9.07275 13.8684 9.06847 13.8942C8.97418 14.2499 8.8799 14.9999 9.42847 14.9999C9.86132 14.9999 10.2642 14.5584 10.5256 14.2842C10.7356 14.0656 10.7399 14.0613 10.697 14.147C10.6113 14.3313 10.3628 14.8327 10.3199 14.897L10.2856 14.9999H11.357L11.3485 14.9227C11.3485 14.8627 11.4428 14.4856 11.4942 14.3313L11.5156 14.2584L11.5242 14.357C11.567 14.7642 11.8242 14.9999 12.2142 14.9999C12.7713 14.9999 13.3199 14.5242 13.6285 14.087C13.6713 14.0227 13.7142 13.9799 13.7228 13.9842L13.8513 14.0399C13.9413 14.0827 13.9842 14.0913 14.1128 14.0913H14.2628V14.1556C14.2628 14.1899 14.2756 14.2756 14.2885 14.3442C14.3528 14.6742 14.5756 14.9999 14.9999 14.9999C15.4328 14.9999 15.857 14.8284 16.2856 14.3699C16.4442 14.2027 16.6113 13.9927 16.7013 13.8556L16.7442 13.7784L16.8385 13.8084C16.8856 13.8299 16.9585 13.8427 17.0013 13.8427H17.0742V14.0142C17.0742 14.507 17.2328 14.9913 17.7856 14.9999C18.2828 15.0084 18.977 14.627 19.4399 13.9584L19.5685 13.7784L19.6542 13.8127C19.9328 13.9156 20.3099 13.7399 20.5113 13.4142C20.5456 13.3542 20.5713 13.2984 20.5713 13.2856C20.5713 13.2727 20.5285 13.2256 20.4728 13.1784L20.3785 13.0927L20.3228 13.1784C20.207 13.3627 20.0013 13.5127 19.8642 13.5127C19.757 13.5127 19.7528 13.4784 19.8428 13.3199C19.9413 13.1442 20.0142 12.9599 20.0699 12.7242C20.2328 12.0942 20.1428 11.1127 19.2899 11.1427C18.947 11.1556 18.5399 11.3013 18.2142 11.5627C17.8799 11.8284 17.5628 12.3984 17.3528 12.8142C17.267 12.977 17.2028 13.157 17.1513 13.3584C17.1128 13.5042 17.1128 13.5042 17.0528 13.5084C17.0228 13.5084 16.9842 13.5084 16.967 13.4956C16.9456 13.4784 16.9499 13.4656 16.9842 13.4099C17.0699 13.2556 17.1599 13.0456 17.2028 12.9127C17.3013 12.6042 17.357 12.0427 17.3142 11.807C17.237 11.3742 16.9199 11.1427 16.4999 11.1427C15.7799 11.1427 15.1713 11.8456 14.777 12.4113C14.5628 12.7199 14.4042 13.0713 14.3228 13.4184C14.3013 13.5299 14.2842 13.5556 14.2499 13.5727C14.207 13.5856 13.9713 13.5942 13.9713 13.577L14.087 13.3799C14.3142 13.0199 14.4213 12.7584 14.4899 12.4113C14.5585 12.0427 14.567 11.1427 14.1128 11.1427C13.7099 11.1427 13.2642 11.4256 12.7285 11.8113C12.6428 11.8756 12.5656 11.927 12.557 11.9227C12.557 11.9227 12.5785 11.867 12.6128 11.807C12.6685 11.7042 12.6856 11.687 12.8913 11.5499C13.3975 11.2421 13.8351 10.8336 14.177 10.3499C14.3056 10.1484 14.447 9.83559 14.5156 9.62131C14.6099 9.32131 14.627 8.81988 14.2885 8.66131C14.0738 8.56069 13.8292 8.54388 13.6028 8.61416H13.607ZM14.0656 9.01702C14.2628 9.19702 13.9499 9.99845 13.4313 10.6456C13.2256 10.9027 12.8699 11.2027 12.8013 11.177C12.7799 11.1684 13.1142 10.3327 13.3156 9.89131C13.4302 9.59829 13.5877 9.32388 13.7828 9.07702C13.8685 8.99131 13.8899 8.97416 13.9542 8.97416C13.997 8.97416 14.0356 8.98702 14.0656 9.01702ZM16.4656 11.5027C16.2042 11.6742 16.0799 11.7856 15.9513 11.9699C15.7546 12.2854 15.6756 12.6604 15.7285 13.0284C15.7585 13.1827 15.8056 13.2684 15.9213 13.3884C16.0413 13.5084 16.0413 13.517 15.8999 13.6456C15.7156 13.817 15.4285 13.9584 15.2142 13.9584C14.9999 13.9584 14.8713 13.7227 14.8885 13.5299C14.9099 13.3284 14.9399 13.1913 14.9956 13.0413C15.287 12.2784 15.9213 11.477 16.3928 11.477C16.4785 11.477 16.4913 11.4813 16.4613 11.4984L16.4656 11.5027ZM19.2685 11.4942C19.0113 11.6656 18.8828 11.7813 18.7628 11.9527C18.6096 12.219 18.527 12.5199 18.5228 12.827C18.5228 13.0756 18.5828 13.2342 18.7456 13.4013C18.7928 13.4484 18.8313 13.4956 18.8313 13.5084C18.8313 13.547 18.6342 13.7227 18.527 13.787C18.4156 13.847 18.2913 13.9584 17.9999 13.9584C17.5628 13.9584 17.7042 13.3327 17.7942 13.0756C17.9056 12.7542 18.1285 12.2184 18.377 11.9484C18.6685 11.6313 18.947 11.4727 19.2042 11.4727C19.2856 11.4727 19.2942 11.4727 19.2685 11.4942ZM9.43704 11.5842C9.5099 11.6142 9.59561 11.6999 9.63418 11.7813C9.67275 11.867 9.66847 12.0427 9.62561 12.1884C9.53561 12.4927 9.22704 13.1699 8.97418 13.4399C8.71704 13.7227 8.48132 13.8684 8.27989 13.8684C8.17704 13.8684 8.11704 13.8256 8.0699 13.7313C8.02275 13.637 8.03561 13.3884 8.10847 13.1827C8.24132 12.7927 8.83275 11.3742 9.43704 11.5842ZM16.7999 11.6827C16.8599 11.9313 16.7142 12.5527 16.4699 12.9384C16.3028 13.1956 16.3242 13.1827 16.247 13.1013C16.0842 12.9342 16.1013 12.4713 16.2513 12.1284C16.337 11.9356 16.4956 11.7427 16.6285 11.657C16.7528 11.5842 16.7742 11.5884 16.7999 11.6827ZM19.6028 11.6656C19.6328 11.7684 19.6156 12.0213 19.5599 12.1799C19.4956 12.3813 19.397 12.7584 19.2813 12.9384C19.1185 13.1956 19.1356 13.1827 19.0713 13.1184C18.977 13.0199 18.9428 12.9342 18.9428 12.7584C18.9428 12.4927 19.0585 12.0427 19.2556 11.8156C19.3499 11.7084 19.4956 11.6013 19.5556 11.6013C19.5728 11.6013 19.5899 11.6227 19.6028 11.6656ZM13.4999 11.5713C13.7099 11.5713 13.7185 12.077 13.7099 12.3213C13.6928 12.6342 13.4913 12.9427 13.2985 13.1784L13.2342 13.2556L13.0799 13.1742C12.8828 13.0713 12.7799 13.0456 12.5656 13.0584C12.3213 13.0713 12.137 13.157 11.9313 13.3627L11.8456 13.4484L11.9056 13.3284L12.1499 12.8527C12.3128 12.5356 12.347 12.4799 12.4499 12.377C12.857 11.957 13.2342 11.5713 13.4999 11.5713ZM12.7799 13.4484C12.8656 13.4742 13.0113 13.5513 13.0328 13.5856C13.0328 13.5984 12.9556 13.6927 12.857 13.7999C12.6856 13.9842 12.4499 14.1556 12.1499 14.1556C11.9485 14.1556 11.9485 14.0142 11.9485 13.907C11.9485 13.7142 12.0899 13.5342 12.3085 13.4613C12.437 13.4184 12.647 13.4099 12.7799 13.4484Z" fill="#F0F3FA"/>
</g>
<defs>
<clipPath id="clip0_31_19570">
<rect width="24" height="24" fill="white"/>
</clipPath>
</defs>
</svg>

<svg xmlns="http://www.w3.org/2000/svg" width="24" height="24" fill="none" viewBox="0 0 24 24"><g clip-path="url(#a)"><path fill="#5B1212" d="M0 0h24v24H0z"/><path fill="#F0F3FA" d="M11.087 8.173c-.077.06-.244.141-.373.175-.488.129-1.474.129-3.077-.017-1.041-.09-1.929-.077-2.447.043a2.2 2.2 0 0 0-1.32.896 1.4 1.4 0 0 0-.202 1.08.87.87 0 0 0 .892.72 1 1 0 0 0 .54-.142c.107-.064.351-.295.351-.334 0-.008-.021-.013-.047-.008-.133.03-.308-.082-.381-.236-.043-.09-.047-.129-.047-.287 0-.223.03-.365.128-.57.236-.506.754-.737 1.457-.665.18.022.75.129.827.163.035.013.026.039-.128.377a14 14 0 0 1-.814 1.616c-.592.982-1.132 1.56-1.758 1.882-.308.162-.454.197-.792.214a2 2 0 0 1-.468-.03l.086.128a4.2 4.2 0 0 1 .75 1.706.3.3 0 0 0 .03.107c.03.022.292-.068.45-.15.472-.248.964-.797 1.457-1.628.429-.737.72-1.346 1.35-2.825q.244-.623.57-1.208c.013-.009.116.017.227.051.566.185.836.236 1.192.24.223 0 .3-.008.428-.043.326-.085.558-.218.772-.462a1.7 1.7 0 0 0 .356-.626c.064-.206.064-.232-.009-.172zm2.52.441c-.15.056-.278.15-.416.304-.218.249-.398.596-.883 1.702q-.576 1.326-1.191 2.636c-.004.004-.03-.013-.051-.043-.022-.03-.043-.052-.048-.047l-.085.12a2.2 2.2 0 0 1-.476.488c-.274.172-.497.129-.527-.103-.026-.15 0-.355.06-.535.15-.45.72-1.659.943-1.899l.085-.094h-.947c0 .077-.03.231-.107.411l-.073.163-.021-.103a.54.54 0 0 0-.172-.321.73.73 0 0 0-.484-.15c-.857 0-1.406 1.2-1.706 1.83-.235.505-.492 2.027.42 2.027.643 0 .922-.716 1.076-1.012.043-.072.069-.12.064-.094-.094.356-.188 1.106.36 1.106.433 0 .836-.442 1.098-.716.21-.218.214-.223.171-.137-.086.184-.334.686-.377.75l-.034.103h1.071l-.008-.077c0-.06.094-.437.145-.592l.022-.073.008.099c.043.407.3.643.69.643.557 0 1.106-.476 1.415-.913.042-.064.085-.107.094-.103l.128.056c.09.043.133.051.262.051h.15v.065c0 .034.013.12.026.188.064.33.287.656.71.656.434 0 .858-.172 1.287-.63.158-.167.325-.377.415-.514l.043-.078.095.03c.047.022.12.035.162.035h.073v.171c0 .493.159.977.712.986.497.008 1.191-.373 1.654-1.042l.128-.18.086.035c.279.103.656-.073.857-.399a.6.6 0 0 0 .06-.128c0-.013-.043-.06-.098-.108l-.095-.085-.055.085c-.116.185-.322.335-.459.335-.107 0-.111-.035-.021-.193.098-.176.171-.36.227-.596.163-.63.073-1.611-.78-1.581a1.9 1.9 0 0 0-1.076.42c-.334.265-.651.835-.861 1.251a2.5 2.5 0 0 0-.202.544c-.038.146-.038.146-.098.15-.03 0-.069 0-.086-.012-.021-.018-.017-.03.017-.086.086-.154.176-.364.219-.497.098-.309.154-.87.111-1.106-.077-.433-.394-.664-.814-.664-.72 0-1.329.703-1.723 1.268-.214.309-.373.66-.454 1.007-.022.112-.039.138-.073.155-.043.013-.279.021-.279.004l.116-.197c.227-.36.334-.622.403-.969.069-.368.077-1.268-.377-1.268-.403 0-.849.283-1.384.668a.8.8 0 0 1-.172.112s.021-.056.056-.116c.056-.103.073-.12.278-.257a4.3 4.3 0 0 0 1.286-1.2c.129-.202.27-.514.339-.729.094-.3.111-.801-.227-.96a.95.95 0 0 0-.686-.047zm.459.403c.197.18-.116.981-.635 1.629-.205.257-.561.557-.63.531-.021-.009.313-.844.515-1.286.114-.293.272-.567.467-.814.085-.086.107-.103.171-.103q.066-.001.112.043m2.4 2.486c-.262.171-.386.283-.515.467-.196.315-.275.69-.223 1.058.03.155.078.24.193.36.12.12.12.129-.021.258-.184.171-.472.312-.686.312s-.343-.235-.325-.428c.02-.202.05-.339.107-.489.291-.763.925-1.564 1.397-1.564.085 0 .098.004.068.021zm2.802-.009c-.257.172-.385.287-.505.459a1.8 1.8 0 0 0-.24.874c0 .249.06.407.223.574a.4.4 0 0 1 .085.107c0 .039-.197.215-.304.279-.111.06-.236.171-.527.171-.437 0-.296-.625-.206-.882.112-.322.334-.858.583-1.128q.44-.475.827-.475c.082 0 .09 0 .064.021m-9.831.09c.073.03.159.116.197.197.039.086.034.262-.008.407-.09.305-.399.982-.652 1.252-.257.283-.493.428-.694.428-.103 0-.163-.042-.21-.137-.047-.094-.034-.343.038-.548.133-.39.725-1.809 1.329-1.599m7.363.099c.06.248-.086.87-.33 1.255-.167.258-.146.245-.223.163-.163-.167-.146-.63.004-.973.086-.192.245-.385.377-.471.125-.073.146-.069.172.026m2.803-.017c.03.102.013.355-.043.514-.064.201-.163.578-.279.758-.162.258-.145.245-.21.18-.094-.098-.128-.184-.128-.36 0-.265.115-.715.313-.942.094-.108.24-.215.3-.215q.026 0 .047.065M13.5 11.57c.21 0 .219.506.21.75-.017.313-.219.622-.412.857l-.064.078-.154-.082a.8.8 0 0 0-.514-.116c-.245.013-.429.099-.635.305l-.085.085.06-.12.244-.475c.163-.317.197-.373.3-.476.407-.42.784-.806 1.05-.806m-.72 1.877c.086.026.231.103.253.138 0 .012-.077.107-.176.214-.171.184-.407.356-.707.356-.202 0-.202-.142-.202-.249 0-.193.142-.373.36-.446a.9.9 0 0 1 .472-.013"/></g><defs><clipPath id="a"><path fill="#fff" d="M0 0h24v24H0z"/></clipPath></defs></svg>
